X:22
T:O'Carolan's Devotion
R:carolan
C:Turlough O'Carolan (1670-1738)
H:Also played in Ador, #21
Z:id:hn-carolan-22
M:3/4
L:1/8
K:Gdor
g>a | b2 b/a/g g/a/b | f2 d>e f2 | dcBA G>F | F4 G>A |
B2 B/c/d d/c/B | c2 dfgd | cBAG G>G | G4 :|
G>F | D2 F2 F2 | F>G F_ED>C | D2 G2 G2 | G>A GF E>D |
D2 B2 B2 | B>cB>AG>A | F2 f2 f2 | f4 g>a |
b2 b>ag>a | b2 d2 d2 | d>c B>cd>e | f2 A2 A2 |
B>A G>AB>c | d2 G2 F/G/A | GF E>DD>E | D4 de |
f2 f/g/a f/g/a | gf ed d/e/f | dc BA GF | F4 F/G/A |
B2 B/c/d d/c/B | c2 dfgd | cBAG G>G | G4 ||
<end>
<start>
